public/services/web-development.svg

<?xml version="1.0" encoding="iso-8859-1"?>
<!-- Generator: Adobe Illustrator 19.0.0, SVG Export Plug-In . SVG Version: 6.00 Build 0)  -->
<svg version="1.1" id="Capa_1" xmlns="http://www.w3.org/2000/svg" xmlns:xlink="http://www.w3.org/1999/xlink" x="0px" y="0px"
	 viewBox="0 0 480 480" style="enable-background:new 0 0 480 480;" xml:space="preserve">
<g>
	<g>
		<rect x="216" y="72" width="216" height="16"/>
	</g>
</g>
<g>
	<g>
		<rect x="216" y="104" width="136" height="16"/>
	</g>
</g>
<g>
	<g>
		<rect x="216" y="136" width="136" height="16"/>
	</g>
</g>
<g>
	<g>
		<rect x="280" y="40" width="152" height="16"/>
	</g>
</g>
<g>
	<g>
		<rect x="248" y="40" width="16" height="16"/>
	</g>
</g>
<g>
	<g>
		<rect x="232" y="320" width="16" height="16"/>
	</g>
</g>
<g>
	<g>
		<path d="M133.656,53.656l-11.312-11.312l-16,16c-3.123,3.124-3.123,8.188,0,11.312l16,16l11.312-11.312L123.312,64L133.656,53.656
			z"/>
	</g>
</g>
<g>
	<g>
		<path d="M197.656,58.344l-16-16l-11.312,11.312L180.688,64l-10.344,10.344l11.312,11.312l16-16
			C200.779,66.532,200.779,61.468,197.656,58.344z"/>
	</g>
</g>
<g>
	<g>
		<rect x="126.697" y="56" transform="matrix(0.3165 -0.9486 0.9486 0.3165 43.1798 187.9208)" width="50.6" height="15.992"/>
	</g>
</g>
<g>
	<g>
		<polygon points="416,248 416,184 400,184 400,248 384,248 384,168 368,168 368,248 352,248 352,208 336,208 336,248 320,248 
			320,200 304,200 304,248 288,248 288,216 272,216 272,248 256,248 256,264 432,264 432,248 		"/>
	</g>
</g>
<g>
	<g>
		<path d="M424,0H56C29.501,0.026,8.026,21.501,8,48v157.008v0.072V296v24c0.026,26.499,21.501,47.974,48,48h99.056l-32,64H80
			c-13.255,0-24,10.745-24,24s10.745,24,24,24h320c13.255,0,24-10.745,24-24s-10.745-24-24-24h-43.056l-32-64H424
			c26.499-0.026,47.974-21.501,48-48V48C471.974,21.501,450.499,0.026,424,0z M24,112.56l18.184,21.648
			c1.52,1.811,3.764,2.856,6.128,2.856H72.8c2.364,0,4.608-1.045,6.128-2.856L97.12,112.56l17.952,5.832l1.984,28.184
			c0.164,2.357,1.362,4.521,3.272,5.912l19.816,14.4c1.917,1.384,4.345,1.855,6.64,1.288l27.464-6.824l11.104,15.272l-14.968,24
			c-1.24,2.012-1.527,4.469-0.784,6.712l7.576,23.288c0.729,2.246,2.412,4.056,4.6,4.944L208,246.2v18.88l-26.24,10.632
			c-2.193,0.884-3.879,2.699-4.6,4.952l-2.4,7.336h-46.088c17.928-37.536,2.032-82.499-35.504-100.427
			c-22.047-10.53-47.833-9.712-69.168,2.195V112.56z M24,208.8c25.876-20.187,63.218-15.575,83.404,10.302
			C122.99,239.08,124.193,266.744,110.4,288H24V208.8z M400,448c4.418,0,8,3.582,8,8s-3.582,8-8,8H80c-4.418,0-8-3.582-8-8
			s3.582-8,8-8H400z M339.056,432H140.944l32-64h134.112L339.056,432z M456,320c0,17.673-14.327,32-32,32H56
			c-17.673,0-32-14.327-32-32v-16h90.576h0.072H456V320z M456,288H194.04l24.968-10.12c3.016-1.224,4.99-4.153,4.992-7.408V240.8
			c0.001-3.258-1.973-6.191-4.992-7.416L191.2,222.136l-5.264-16.2l15.856-25.44c1.72-2.764,1.593-6.294-0.32-8.928l-17.44-24
			c-1.915-2.637-5.237-3.849-8.4-3.064l-29.088,7.2L132.8,141.72l-2.104-29.84c-0.229-3.253-2.41-6.042-5.512-7.048l-28.2-9.168
			c-3.103-0.988-6.495-0.013-8.6,2.472l-19.256,22.92H52.064L32.8,98.136c-2.106-2.488-5.503-3.464-8.608-2.472L24,95.736V48
			c0-17.673,14.327-32,32-32h368c17.673,0,32,14.327,32,32V288z"/>
	</g>
</g>
<g>
</g>
<g>
</g>
<g>
</g>
<g>
</g>
<g>
</g>
<g>
</g>
<g>
</g>
<g>
</g>
<g>
</g>
<g>
</g>
<g>
</g>
<g>
</g>
<g>
</g>
<g>
</g>
<g>
</g>
</svg>

<svg width="480" height="480" viewBox="0 0 480 480" fill="none" xmlns="http://www.w3.org/2000/svg">
<path d="M432 72H216V88H432V72Z" fill="white"/>
<path d="M352 104H216V120H352V104Z" fill="white"/>
<path d="M352 136H216V152H352V136Z" fill="white"/>
<path d="M432 40H280V56H432V40Z" fill="white"/>
<path d="M264 40H248V56H264V40Z" fill="white"/>
<path d="M248 320H232V336H248V320Z" fill="white"/>
<path d="M133.656 53.656L122.344 42.344L106.344 58.344C103.221 61.468 103.221 66.532 106.344 69.656L122.344 85.656L133.656 74.344L123.312 64L133.656 53.656Z" fill="white"/>
<path d="M197.656 58.344L181.656 42.344L170.344 53.656L180.688 64L170.344 74.344L181.656 85.656L197.656 69.656C200.779 66.532 200.779 61.468 197.656 58.344Z" fill="white"/>
<path d="M152.416 37.4609L136.401 85.46L151.571 90.5215L167.586 42.5223L152.416 37.4609Z" fill="white"/>
<path d="M416 248V184H400V248H384V168H368V248H352V208H336V248H320V200H304V248H288V216H272V248H256V264H432V248H416Z" fill="white"/>
<path d="M424 0H56C29.501 0.026 8.026 21.501 8 48V205.008V205.08V296V320C8.026 346.499 29.501 367.974 56 368H155.056L123.056 432H80C66.745 432 56 442.745 56 456C56 469.255 66.745 480 80 480H400C413.255 480 424 469.255 424 456C424 442.745 413.255 432 400 432H356.944L324.944 368H424C450.499 367.974 471.974 346.499 472 320V48C471.974 21.501 450.499 0.026 424 0ZM24 112.56L42.184 134.208C43.704 136.019 45.948 137.064 48.312 137.064H72.8C75.164 137.064 77.408 136.019 78.928 134.208L97.12 112.56L115.072 118.392L117.056 146.576C117.22 148.933 118.418 151.097 120.328 152.488L140.144 166.888C142.061 168.272 144.489 168.743 146.784 168.176L174.248 161.352L185.352 176.624L170.384 200.624C169.144 202.636 168.857 205.093 169.6 207.336L177.176 230.624C177.905 232.87 179.588 234.68 181.776 235.568L208 246.2V265.08L181.76 275.712C179.567 276.596 177.881 278.411 177.16 280.664L174.76 288H128.672C146.6 250.464 130.704 205.501 93.168 187.573C71.121 177.043 45.335 177.861 24 189.768V112.56ZM24 208.8C49.876 188.613 87.218 193.225 107.404 219.102C122.99 239.08 124.193 266.744 110.4 288H24V208.8ZM400 448C404.418 448 408 451.582 408 456C408 460.418 404.418 464 400 464H80C75.582 464 72 460.418 72 456C72 451.582 75.582 448 80 448H400ZM339.056 432H140.944L172.944 368H307.056L339.056 432ZM456 320C456 337.673 441.673 352 424 352H56C38.327 352 24 337.673 24 320V304H114.576H114.648H456V320ZM456 288H194.04L219.008 277.88C222.024 276.656 223.998 273.727 224 270.472V240.8C224.001 237.542 222.027 234.609 219.008 233.384L191.2 222.136L185.936 205.936L201.792 180.496C203.512 177.732 203.385 174.202 201.472 171.568L184.032 147.568C182.117 144.931 178.795 143.719 175.632 144.504L146.544 151.704L132.8 141.72L130.696 111.88C130.467 108.627 128.286 105.838 125.184 104.832L96.984 95.664C93.881 94.676 90.489 95.651 88.384 98.136L69.128 121.056H52.064L32.8 98.136C30.694 95.648 27.297 94.672 24.192 95.664L24 95.736V48C24 30.327 38.327 16 56 16H424C441.673 16 456 30.327 456 48V288Z" fill="white"/>
</svg>
